svgs/sharp-solid/truck-fast.svg

<svg xmlns="http://www.w3.org/2000/svg" viewBox="0 0 640 512"><!--! Font Awesome Pro 6.6.0 by @fontawesome - https://fontawesome.com License - https://fontawesome.com/license (Commercial License) Copyright 2024 Fonticons, Inc. --><path d="M416 0L64 0l0 96L0 96l0 32 64 0 224 0 0 32L64 160l-32 0 0 32 32 0 192 0 0 32L64 224 0 224l0 32 64 0 160 0 0 32L64 288l0 128c0 53 43 96 96 96s96-43 96-96l128 0c0 53 43 96 96 96s96-43 96-96l32 0 32 0 0-64-32 0 0-64 0-32 0-32 0-13.3-9.4-9.4-96-96L493.3 96 480 96l-64 0 0-96zM544 237.3l0 18.7-128 0 0-96 50.7 0L544 237.3zM160 368a48 48 0 1 1 0 96 48 48 0 1 1 0-96zm272 48a48 48 0 1 1 96 0 48 48 0 1 1 -96 0z"/></svg>

<svg xmlns="http://www.w3.org/2000/svg" viewBox="0 0 640 512"><!--! Font Awesome Pro 6.4.2 by @fontawesome - https://fontawesome.com License - https://fontawesome.com/license (Commercial License) Copyright 2023 Fonticons, Inc. --><path d="M416 0H64V96H0v32H64 288v32H64 32v32H64 256v32H64 0v32H64 224v32H64V416c0 53 43 96 96 96s96-43 96-96H384c0 53 43 96 96 96s96-43 96-96h32 32V352H608V288 256 224 210.7l-9.4-9.4-96-96L493.3 96H480 416V0zM544 237.3V256H416V160h50.7L544 237.3zM160 368a48 48 0 1 1 0 96 48 48 0 1 1 0-96zm272 48a48 48 0 1 1 96 0 48 48 0 1 1 -96 0z"/></svg>
